X:42
T:Il était une fille, une fille d'honneur
R:Chanson
O:France
B:Le livre des Chansons (Henri Davenson) n°42
Z:<anamnese@caramail.com> -- http://anamnese.fr.st
M:6/8
L:1/8
Q:1/4=80
K:Ab
F | c3 B c d | c2 B-A z B | c2 B c2 d |\
M:2/4
e d e f |!
M:6/8
c3 B A B | c3-c z F | c3 B c d | c2 B-A z B |\
M:2/4
c B A G | F2 z2 |\
M:6/8
A G A B2 B | B2 z Hc3 ||
W:Il était une fille, une fille d'honneur
W:Qui plaisait fort à son seigneur ;
W:En son chemin rencontre ce seigneur déloyal,
W:Monté sur son cheval, al !

